static/MIL.svg

<?xml version="1.0" encoding="UTF-8" standalone="no"?>
<svg width="150px" height="150px" viewBox="0 0 150 150" version="1.1" xmlns="http://www.w3.org/2000/svg" xmlns:xlink="http://www.w3.org/1999/xlink">
    <!-- Generator: Sketch 39.1 (31720) - http://www.bohemiancoding.com/sketch -->
    <title>MIL</title>
    <desc>Created with Sketch.</desc>
    <defs></defs>
    <g id="Page-1" stroke="none" stroke-width="1" fill="none" fill-rule="evenodd">
        <g id="MIL">
            <g id="Page-1">
                <path d="M53.9058981,117.820999 C53.3760617,117.385331 53.1544937,116.680573 53.3407393,116.020664 L59.5992313,93.8176011 C59.6345537,93.6862599 59.6859318,93.5613257 59.7501544,93.4460017 L56.8761932,88.8554681 C56.6128805,88.435817 56.5454468,87.9264696 56.6835254,87.4523601 L57.0849166,86.1037106 L53.1480715,85.8506386 C49.4456388,85.578346 48.1258645,85.0914227 47.2460149,84.6077028 C43.5339488,82.5607028 42.5641876,76.6855885 42.3522531,74.9333052 L42.1178406,72.9599844 C42.0022399,72.1591237 42.2109633,71.3774836 42.6926328,70.8136777 C43.068335,70.3780094 43.5853269,70.0993099 44.1440635,70.035241 C35.5831914,62.3085368 27.8443686,52.7078184 30.5481399,39.1764756 C33.5312795,24.2324145 45.6372388,19.7283738 46.1510196,19.5425741 C46.3436874,19.4720983 46.5427775,19.4400639 46.7354452,19.4400639 C47.3584044,19.4400639 47.9524634,19.7764254 48.2607319,20.3530451 C48.4758776,20.7566789 48.5176223,21.2083644 48.4052327,21.6216085 C52.4030894,18.2387728 56.2243338,16.7619856 57.8266876,16.2494348 C58.0000886,16.1917728 58.1799119,16.1661453 58.3533129,16.1661453 C59.0180168,16.1661453 59.640976,16.547355 59.9299776,17.1784332 C60.2928353,17.9728871 60.0006225,18.9179027 59.2492181,19.3695882 C55.5981635,21.5703534 52.419145,24.5655725 50.020431,28.0124771 C52.9361369,27.3333472 54.891715,27.259668 55.5756856,27.259668 C55.8100981,27.259668 55.9289099,27.2692783 55.9289099,27.2692783 C56.7830704,27.3205334 57.4766745,27.990053 57.5505305,28.8389654 C57.6275976,29.6878777 57.0752832,30.4663144 56.2436006,30.6681313 C56.1986448,30.680945 51.4397504,31.8822361 46.186342,35.6430781 C45.1941029,38.6607213 44.6931667,41.8129091 44.6931667,45.0131486 C44.6931667,51.0804694 46.6391114,57.3111658 50.0332756,62.1035164 C50.8424803,63.2471455 51.6420516,64.2434163 52.4801565,65.1531941 C52.1558324,58.9224976 53.9444317,49.1872347 65.231553,44.6703802 C65.4434875,44.5838872 65.6618444,44.5454459 65.8769901,44.5454459 C66.5127938,44.5454459 67.1229084,44.8978246 67.4215435,45.5000719 C67.8261459,46.3009326 67.5435664,47.2779827 66.7761064,47.7456854 L66.692617,47.793737 C64.9521847,48.9245523 63.4879095,50.3853223 62.3704363,52.0767401 C63.5970879,51.6987339 64.6535496,51.5737996 65.3664204,51.4905101 L65.5012879,51.4744929 C65.5687216,51.4648826 65.6393665,51.4616791 65.7068002,51.4616791 C66.4293044,51.4616791 67.087586,51.9133646 67.334843,52.6085117 C67.607789,53.3677276 67.3123651,54.2134366 66.6316056,54.6459014 L66.5738052,54.6811392 C66.5513273,54.6971564 66.5256383,54.7131737 66.4999492,54.7259874 C62.8874282,56.8050219 60.8772609,59.2236213 60.5272478,61.9209202 C60.1419122,64.8680876 61.7763773,67.6422692 62.9484397,69.2087528 C65.9861685,65.7041862 67.9642244,59.7169515 68.5165388,57.4617277 C68.7092066,56.6800876 69.4092329,56.1451126 70.1959597,56.1451126 C70.2633934,56.1451126 70.3308271,56.1483161 70.3982608,56.1579264 C71.2652659,56.2572331 71.9235475,56.9876181 71.9267586,57.8589546 C71.9717144,65.2172629 69.9904473,70.2434648 67.9610133,73.4533146 C71.0019532,74.9909672 73.9818817,75.0806636 74.6273188,75.0806636 C74.7011748,75.0806636 74.8039309,75.0774602 74.8264088,75.0774602 C74.8456756,75.0774602 74.954854,75.0806636 75.0319212,75.0806636 C75.6773582,75.0806636 78.6572867,74.9909672 81.6982266,73.4533146 C79.6687926,70.2434648 77.6875255,65.2172629 77.7324813,57.8589546 C77.7356925,56.9876181 78.3907629,56.2572331 79.257768,56.1579264 C79.3284128,56.1483161 79.3958466,56.1451126 79.4632803,56.1451126 C80.2500071,56.1451126 80.9500334,56.6800876 81.1394901,57.4617277 C81.6950155,59.7169515 83.6730715,65.7041862 86.7108003,69.2087528 C87.8796515,67.6454726 89.5141166,64.8680876 89.1319922,61.9209202 C88.781979,59.2236213 86.7718118,56.8050219 83.1592907,54.7259874 C83.1368128,54.7131737 83.0501123,54.6587151 83.0501123,54.6587151 C82.3661416,54.2262503 82.0642954,53.3741345 82.3340303,52.6149186 C82.5812873,51.9197714 83.2299356,51.4616791 83.9556509,51.4616791 C84.0230846,51.4616791 84.0905184,51.4648826 84.1579521,51.4744929 L84.2928195,51.4905101 C85.0024792,51.5737996 86.0621521,51.6987339 87.2888037,52.0767401 C86.1713305,50.3853223 84.7070553,48.9245523 82.9666229,47.7969404 L82.8863447,47.7456854 C82.1156735,47.2779827 81.8330941,46.3009326 82.2344853,45.5000719 C82.5363315,44.8978246 83.1464462,44.5454459 83.7822499,44.5454459 C83.9973956,44.5454459 84.2157524,44.5838872 84.427687,44.6703802 C95.7148083,49.1872347 97.5034076,58.9224976 97.1758723,65.1531941 C98.0171884,64.2434163 98.8167597,63.2471455 99.6259644,62.1035164 C103.020129,57.3111658 104.966073,51.0804694 104.966073,45.0131486 C104.966073,41.8097057 104.465137,38.6607213 103.469687,35.6430781 C98.1873782,31.8534051 93.4638063,30.680945 93.4156393,30.6681313 C92.5839567,30.4663144 92.0316424,29.6878777 92.1054984,28.8389654 C92.1825655,27.990053 92.8761695,27.3205334 93.7271189,27.2692783 C93.7271189,27.2692783 93.8491419,27.259668 94.0835543,27.259668 C94.7643139,27.259668 96.723103,27.3333472 99.6355978,28.0124771 C97.2400949,24.5655725 94.0610764,21.5703534 90.4100218,19.3695882 C89.6586175,18.9179027 89.3664046,17.9760905 89.7292623,17.1784332 C90.018264,16.547355 90.6412232,16.1661453 91.3027159,16.1661453 C91.4793281,16.1661453 91.6559402,16.1917728 91.8325523,16.2494348 C93.4349061,16.7619856 97.2561506,18.2387728 101.254007,21.6216085 C101.141618,21.2083644 101.180151,20.7566789 101.395297,20.3530451 C101.703565,19.7764254 102.300836,19.4400639 102.923795,19.4400639 C103.116462,19.4400639 103.315553,19.4720983 103.50822,19.5425741 C104.022001,19.7283738 116.124749,24.2324145 119.1111,39.1764756 C121.814871,52.7078184 114.076049,62.3085368 105.515176,70.035241 C106.073913,70.0993099 106.590905,70.374806 106.963396,70.8136777 C107.448277,71.3774836 107.657,72.1591237 107.541399,72.9599844 L107.303776,74.9333052 C107.095052,76.6855885 106.125291,82.5607028 102.413225,84.6077028 C101.533375,85.0914227 100.21039,85.578346 96.5272241,85.8506386 L92.5743233,86.1037106 L92.9757145,87.4523601 C93.1137931,87.9264696 93.0431483,88.435817 92.7830468,88.8554681 L89.9090856,93.4460017 C89.9733082,93.5613257 90.0246863,93.6862599 90.0600087,93.8176011 L96.3185007,116.020664 C96.5047462,116.680573 96.2831783,117.385331 95.7533418,117.820999 L74.82962,134.786432 L53.9058981,117.820999 Z" id="Fill-1" fill="#EDE0C5"></path>
                <path d="M40.4297496,57.2249932 C40.4297496,57.2249932 37.8961682,45.766278 39.7778903,38.9845894 C39.276954,39.5259712 38.7663844,40.0833703 38.2975594,40.6920244 C33.7056438,46.6183938 40.4297496,57.2249932 40.4297496,57.2249932 M109.228206,57.2249932 C109.228206,57.2249932 115.955523,46.6183938 111.363607,40.6920244 C110.891571,40.0833703 110.381001,39.5259712 109.880065,38.9845894 C111.764998,45.766278 109.228206,57.2249932 109.228206,57.2249932 M32.2445797,39.5131574 C35.0735851,25.3539398 46.7364086,21.16704 46.7364086,21.16704 C42.4656059,24.3128209 38.1081028,30.2327834 36.306659,38.5425143 C38.0599358,36.37058 39.6847675,34.743231 41.5953898,33.4426332 C46.325384,23.2813123 54.3949532,19.1584813 58.3542762,17.8931213 C53.2196797,20.9908506 48.923188,25.6006049 46.3125394,30.9087098 C52.2499185,28.7944375 55.8367505,28.9898475 55.8367505,28.9898475 C55.8367505,28.9898475 50.5255418,30.2776316 44.7230302,34.5702451 C43.5862902,37.8409603 42.9633311,41.3551371 42.9633311,45.0102655 C42.9633311,51.4459822 45.040932,58.0418712 48.6213418,63.1001075 C50.6347202,65.9447648 52.583876,67.9116787 55.0050679,69.7024033 C54.2022854,67.6906412 51.1549232,52.1635535 65.8747423,46.272422 L65.7719861,46.3332874 C62.2943325,48.5821043 59.7318509,52.0802639 58.6914449,56.1998915 C61.3791605,53.6307303 64.2145882,53.3648445 65.7077635,53.1854517 C65.6820745,53.201469 65.6595966,53.2174862 65.6371187,53.2302999 C51.9705502,61.0947523 62.8370135,71.7429964 62.8370135,71.7429964 C67.1463497,68.1423266 69.6574532,60.0760574 70.196923,57.8688853 C70.2515122,66.3932468 67.4096623,71.4963313 65.4765622,73.9886099 C69.8822323,77.0062531 74.8241611,76.8044362 74.8241611,76.8044362 L74.8305833,76.8044362 L74.8337944,76.8044362 C74.8370056,76.8044362 79.7757232,77.0062531 84.1813933,73.9886099 C82.2482932,71.4963313 79.4096544,66.3932468 79.4610325,57.8688853 C80.0005023,60.0760574 82.514817,68.1423266 86.820942,71.7429964 C86.820942,71.7429964 97.6906165,61.0947523 84.024048,53.2302999 C83.9983589,53.2174862 83.975881,53.201469 83.9534031,53.1854517 C85.4433673,53.3648445 88.278795,53.6307303 90.9665106,56.1998915 C89.9261046,52.0802639 87.363623,48.5821043 83.8859694,46.3332874 L83.7832132,46.272422 C98.5030323,52.1635535 95.4556701,67.6906412 94.6528876,69.7024033 C97.0772907,67.9116787 99.0232353,65.9447648 101.036614,63.1001075 C104.620235,58.0418712 106.697836,51.4459822 106.697836,45.0102655 C106.697836,41.3551371 106.074876,37.8409603 104.934925,34.5702451 C99.1324137,30.2776316 93.8244162,28.9898475 93.8244162,28.9898475 C93.8244162,28.9898475 97.408037,28.7944375 103.345416,30.9087098 C100.734768,25.6006049 96.441487,20.9908506 91.3036793,17.8931213 C95.2630023,19.1584813 103.332572,23.2813123 108.062566,33.4426332 C109.973188,34.743231 111.601231,36.37058 113.354508,38.5425143 C111.553064,30.2327834 107.19235,24.3128209 102.921547,21.16704 C102.921547,21.16704 114.587582,25.3539398 117.413376,39.5131574 C120.707995,55.9948712 107.513463,66.2875332 96.8717784,75.103408 L104.995937,71.8006584 C105.54504,71.5668071 105.927164,72.0953752 105.824408,72.7296569 L105.586785,74.7286052 C105.455128,75.8305896 104.645924,81.4077837 101.576084,83.0959981 C100.91138,83.464394 99.7682174,83.8808416 96.3997423,84.1307101 L90.3018068,84.5215302 L91.3165238,87.9428072 L85.3309778,97.5050842 L88.3943956,94.2824207 L94.6528876,116.488687 L77.4829765,130.580632 L82.8391411,106.336976 L74.8305833,116.056222 L66.8188144,106.336976 L72.174979,130.580632 L55.0050679,116.488687 L61.2635599,94.2824207 L64.3301888,97.5050842 L58.3446429,87.9428072 L59.3561487,84.5215302 L53.2582132,84.1307101 C49.8897381,83.8808416 48.7465758,83.464394 48.081872,83.0959981 C45.0120319,81.4077837 44.2028272,75.8305896 44.0711708,74.7286052 L43.8335472,72.7296569 C43.7307911,72.0953752 44.1129155,71.5668071 44.6620187,71.8006584 L52.7861772,75.103408 C42.1477041,66.2875332 28.9531717,55.9948712 32.2445797,39.5131574" id="Fill-4" fill="#00471A"></path>
                <path d="M46.7373719,74.692086 L46.7373719,74.692086 C46.7373719,74.692086 47.3282198,79.6638294 49.4218764,80.8170688 C50.8315624,81.592302 54.2803159,81.5186228 57.2923556,81.7492707 C53.9559917,80.4582832 49.0429631,76.9376994 46.7373719,74.692086 L46.7373719,74.692086 Z M65.2110017,85.2025821 C67.0349235,86.6056901 68.5794769,85.82405 69.4079484,85.013579 C69.6808944,84.7508967 69.5974051,84.2960078 69.2538142,84.1390391 C68.383598,83.7418122 66.7394995,82.9890031 65.1050345,82.2393974 C64.7774992,82.0920391 64.401797,82.293856 64.3439967,82.6494381 C64.228396,83.3541956 64.2444517,84.4561799 65.2110017,85.2025821 L65.2110017,85.2025821 Z M68.5248877,94.8513521 L67.542282,99.1695932 L69.9570516,102.421088 L72.5195332,102.421088 L70.1465083,98.9357418 L70.5222104,96.7862316 C71.5979389,97.9330642 73.1296479,98.6506354 74.8283355,98.6570423 C76.5302343,98.6506354 78.0587321,97.9330642 79.1376717,96.7862316 L79.5133739,98.9357418 L77.1371379,102.421088 L79.7028306,102.421088 L82.1176002,99.1695932 L81.1349945,94.8513521 C78.8294033,93.3809718 78.2963557,91.2955305 78.2963557,91.2955305 L76.6875797,86.0418842 L74.8283355,86.9420516 L72.9690914,86.0418842 L71.3635265,91.2955305 C71.3635265,91.2955305 70.8304789,93.3809718 68.5248877,94.8513521 L68.5248877,94.8513521 Z M80.2487226,85.013579 C81.0771941,85.82405 82.6249587,86.6056901 84.4456693,85.2025821 C85.4122194,84.4561799 85.4314862,83.3541956 85.3158855,82.6494381 C85.254874,82.293856 84.8791718,82.0920391 84.5516366,82.2393974 C82.9171715,82.9890031 81.2762842,83.7418122 80.406068,84.1390391 C80.0624771,84.2960078 79.9789877,84.7508967 80.2487226,85.013579 L80.2487226,85.013579 Z M78.3092002,104.42324 L74.8283355,104.42324 L71.3474708,104.42324 L73.0204694,106.688074 L74.8283355,106.688074 L76.6394127,106.688074 L78.3092002,104.42324 Z M92.3675266,81.7492707 C95.3795663,81.5186228 98.8283197,81.592302 100.238006,80.8170688 C102.328451,79.6638294 102.92251,74.692086 102.92251,74.692086 L102.92251,74.692086 C100.613708,76.9376994 95.7006793,80.4582832 92.3675266,81.7492707 L92.3675266,81.7492707 Z" id="Fill-6" fill="#FEFEFE"></path>
                <rect id="Rectangle" x="0" y="0" width="150" height="150"></rect>
            </g>
        </g>
    </g>
</svg>

<svg xmlns="http://www.w3.org/2000/svg" width="150" height="150" fill-rule="evenodd"><path d="M53.906 117.82a1.72 1.72 0 0 1-.565-1.8L59.6 93.818a1.64 1.64 0 0 1 .151-.372l-2.874-4.59c-.263-.42-.33-.93-.193-1.403l.4-1.35-3.937-.253c-3.702-.272-5.022-.76-5.902-1.243-3.712-2.047-4.682-7.922-4.894-9.674l-.234-1.973c-.116-.8.093-1.583.575-2.146.376-.436.893-.714 1.45-.778-8.56-7.727-16.3-17.327-13.596-30.86 2.983-14.944 15.09-19.448 15.603-19.634.193-.07.392-.103.584-.103.623 0 1.217.336 1.525.913.215.404.257.855.145 1.27 3.998-3.383 7.82-4.86 9.42-5.372.173-.058.353-.083.527-.083a1.73 1.73 0 0 1 1.577 1.012c.363.794.07 1.74-.68 2.19-3.65 2.2-6.83 5.196-9.23 8.643 2.916-.68 4.87-.753 5.555-.753.234 0 .353.01.353.01a1.73 1.73 0 0 1 1.622 1.57 1.72 1.72 0 0 1-1.307 1.829c-.045.013-4.804 1.214-10.057 4.975-.992 3.018-1.493 6.17-1.493 9.37 0 6.067 1.946 12.298 5.34 17.1.81 1.144 1.61 2.14 2.447 3.05-.324-6.23 1.464-15.966 12.75-20.483a1.7 1.7 0 0 1 .645-.125c.636 0 1.246.352 1.545.955.405.8.122 1.778-.645 2.246l-.083.048c-1.74 1.13-3.205 2.592-4.322 4.283 1.227-.378 2.283-.503 2.996-.586l.135-.016c.067-.01.138-.013.206-.013a1.73 1.73 0 0 1 1.628 1.147c.273.76-.022 1.605-.703 2.037l-.058.035c-.022.016-.048.032-.074.045-3.613 2.08-5.623 4.498-5.973 7.195-.385 2.947 1.25 5.72 2.42 7.288 3.038-3.505 5.016-9.492 5.568-11.747a1.73 1.73 0 0 1 1.679-1.317 1.43 1.43 0 0 1 .202.013c.867.1 1.525.83 1.528 1.7.045 7.358-1.936 12.385-3.966 15.594 3.04 1.538 6.02 1.627 6.666 1.627.074 0 .177-.003.2-.003s.128.003.206.003c.645 0 3.625-.1 6.666-1.627-2.03-3.2-4.01-8.236-3.966-15.594a1.72 1.72 0 0 1 1.525-1.701c.07-.01.138-.013.206-.013.787 0 1.487.535 1.676 1.317.556 2.255 2.534 8.242 5.57 11.747 1.17-1.563 2.803-4.34 2.42-7.288-.35-2.697-2.36-5.116-5.973-7.195-.022-.013-.11-.067-.11-.067a1.74 1.74 0 0 1-.716-2.044c.247-.695.896-1.153 1.622-1.153a1.43 1.43 0 0 1 .202.013l.135.016c.7.083 1.77.208 2.996.586-1.117-1.69-2.582-3.152-4.322-4.28l-.08-.05c-.77-.468-1.053-1.445-.652-2.246a1.73 1.73 0 0 1 1.548-.955 1.7 1.7 0 0 1 .645.125c11.287 4.517 13.076 14.252 12.748 20.483.84-.9 1.64-1.906 2.45-3.05 3.394-4.792 5.34-11.023 5.34-17.1 0-3.203-.5-6.352-1.496-9.37-5.282-3.8-10.006-4.962-10.054-4.975-.832-.202-1.384-.98-1.3-1.83s.77-1.518 1.622-1.57c0 0 .122-.01.356-.01.68 0 2.64.074 5.552.753-2.396-3.447-5.575-6.442-9.226-8.643-.75-.452-1.044-1.393-.68-2.19a1.73 1.73 0 0 1 1.573-1.012c.177 0 .353.026.53.083 1.602.513 5.424 1.99 9.42 5.372-.112-.413-.074-.865.14-1.27.308-.577.906-.913 1.528-.913.193 0 .392.032.584.103.514.186 12.617 4.7 15.603 19.634 2.704 13.53-5.035 23.132-13.596 30.86.56.064 1.076.34 1.448.778.485.564.694 1.345.578 2.146l-.238 1.973c-.21 1.752-1.178 7.627-4.89 9.674-.88.484-2.203.97-5.886 1.243l-3.953.253.4 1.35a1.74 1.74 0 0 1-.193 1.403l-2.874 4.59a1.64 1.64 0 0 1 .151.372l6.258 22.203a1.72 1.72 0 0 1-.565 1.8L74.83 134.786 53.906 117.82z" fill="#ede0c5"/><path d="M40.43 57.225s-2.534-11.46-.652-18.24l-1.48 1.707c-4.592 5.926 2.132 16.533 2.132 16.533m68.798 0s6.727-10.607 2.135-16.533c-.472-.61-.983-1.166-1.484-1.707 1.885 6.782-.652 18.24-.652 18.24M32.245 39.513c2.83-14.16 14.492-18.346 14.492-18.346-4.27 3.146-8.628 9.066-10.43 17.375 1.753-2.172 3.378-3.8 5.29-5.1 4.73-10.16 12.8-14.284 16.76-15.55-5.135 3.098-9.43 7.707-12.042 13.016C52.25 28.794 55.837 29 55.837 29s-5.31 1.288-11.114 5.58a31.75 31.75 0 0 0-1.76 10.44c0 6.436 2.078 13.032 5.658 18.1 2.013 2.845 3.963 4.812 6.384 6.602-.803-2.012-3.85-17.54 10.87-23.43l-.103.06c-3.478 2.25-6.04 5.747-7.08 9.867 2.688-2.57 5.523-2.835 7.016-3.014-.026.016-.048.032-.07.045-13.667 7.864-2.8 18.513-2.8 18.513 4.31-3.6 6.82-11.667 7.36-13.874.055 8.524-2.787 13.627-4.72 16.12 4.406 3.018 9.348 2.816 9.348 2.816h.01c.003 0 4.942.202 9.348-2.816-1.933-2.492-4.772-7.595-4.72-16.12.54 2.207 3.054 10.273 7.36 13.874 0 0 10.87-10.648-2.797-18.513a.53.53 0 0 1-.071-.045c1.5.18 4.325.445 7.013 3.014-1.04-4.12-3.603-7.618-7.08-9.867l-.103-.06c14.72 5.89 11.672 21.418 10.87 23.43 2.424-1.79 4.37-3.758 6.384-6.602 3.584-5.058 5.66-11.654 5.66-18.1a31.67 31.67 0 0 0-1.763-10.44C99.132 30.278 93.824 29 93.824 29s3.584-.195 9.52 1.92c-2.61-5.308-6.904-9.918-12.042-13.016 3.96 1.265 12.03 5.388 16.76 15.55 1.91 1.3 3.54 2.928 5.292 5.1-1.8-8.3-6.162-14.23-10.433-17.375 0 0 11.666 4.187 14.492 18.346 3.295 16.482-9.9 26.774-20.542 35.6l8.124-3.303c.55-.234.93.295.828.93l-.238 2c-.132 1.102-.94 6.68-4.01 8.367-.665.368-1.808.785-5.176 1.035l-6.098.39 1.015 3.42-5.986 9.562 3.063-3.223 6.258 22.206-17.17 14.092 5.356-24.244-8.01 9.72-8.012-9.72 5.356 24.244-17.17-14.092 6.258-22.206 3.067 3.223-5.986-9.562 1.012-3.42-6.098-.39c-3.368-.25-4.512-.666-5.176-1.035-3.07-1.688-3.88-7.265-4.01-8.367l-.238-2c-.103-.634.28-1.163.828-.93l8.124 3.303c-10.638-8.816-23.833-19.11-20.542-35.6" fill="#00471a"/><path d="M46.737 74.692s.59 4.972 2.685 6.125c1.4.775 4.858.702 7.87.932-3.336-1.29-8.25-4.812-10.555-7.057zm18.474 10.5c1.824 1.403 3.368.62 4.197-.19.273-.263.19-.718-.154-.875l-4.15-1.9c-.328-.147-.703.054-.76.4-.116.705-.1 1.807.867 2.553zm3.314 9.65l-.983 4.318 2.415 3.25h2.562l-2.373-3.485.376-2.15a5.92 5.92 0 0 0 4.306 1.871c1.702-.006 3.23-.724 4.31-1.87l.376 2.15-2.376 3.485h2.566l2.415-3.25-.983-4.318c-2.306-1.47-2.84-3.556-2.84-3.556l-1.61-5.254-1.86.9-1.86-.9-1.606 5.254s-.533 2.085-2.84 3.556zm11.724-9.838c.828.8 2.376 1.592 4.197.19.967-.746.986-1.848.87-2.553-.06-.356-.437-.557-.764-.4l-4.146 1.9a.54.54 0 0 0-.157.875zm-1.94 19.4h-6.962l1.673 2.265h3.62l1.67-2.265zM92.368 81.75c3.012-.23 6.46-.157 7.87-.932 2.1-1.153 2.685-6.125 2.685-6.125-2.31 2.246-7.222 5.766-10.555 7.057z" fill="#fefefe"/></svg>
